X: 300
%
U:~=!turn!
T: Lady Grace Douglas
C:Neil Gow
O:Scotland
B:Keith Norman MacDonald : "The Skye collection of the best reels & strathspeys extant" : 1887
Z:Ralph Palmer
R:Reel
M:C|
L:1/8
K:Bb
g | Tf2 (dB) {/d}c2 (AF) | ~B2 (FD) ECCg | Tf2 (dB) dcAF | BFGE DB,B, :|
E | (D/E/F) FB GBFB | EBDB cCCE | (D/E/F) (FB) GBFB | DFBF DB,B,E |
(D/E/F) (FB) GBFB | EBDB cCCE | (DF)Bd cFAg | Tfdce dBB |]


